icons/volume-mute.svg

<svg width="24" height="24" viewBox="0 0 24 24" fill="none" xmlns="http://www.w3.org/2000/svg">
<path fill-rule="evenodd" clip-rule="evenodd" d="M11.3827 3.07615C11.7564 3.23093 12 3.59557 12 4.00003V20C12 20.4045 11.7564 20.7691 11.3827 20.9239C11.009 21.0787 10.5789 20.9931 10.2929 20.7071L5.58579 16H2C1.44772 16 1 15.5523 1 15V9.00003C1 8.44774 1.44772 8.00003 2 8.00003H5.58579L10.2929 3.29292C10.5789 3.00692 11.009 2.92137 11.3827 3.07615ZM10 6.41424L6.70711 9.70714C6.51957 9.89467 6.26522 10 6 10H3V14H6C6.26522 14 6.51957 14.1054 6.70711 14.2929L10 17.5858V6.41424ZM15.2929 8.29292C15.6834 7.9024 16.3166 7.9024 16.7071 8.29292L19 10.5858L21.2929 8.29292C21.6834 7.9024 22.3166 7.9024 22.7071 8.29292C23.0976 8.68345 23.0976 9.31661 22.7071 9.70714L20.4142 12L22.7071 14.2929C23.0976 14.6834 23.0976 15.3166 22.7071 15.7071C22.3166 16.0977 21.6834 16.0977 21.2929 15.7071L19 13.4142L16.7071 15.7071C16.3166 16.0977 15.6834 16.0977 15.2929 15.7071C14.9024 15.3166 14.9024 14.6834 15.2929 14.2929L17.5858 12L15.2929 9.70714C14.9024 9.31661 14.9024 8.68345 15.2929 8.29292Z" fill="black"/>
</svg>

<svg
  width="24"
  height="24"
  viewBox="0 0 24 24"
  xmlns="http://www.w3.org/2000/svg"
>
  <path
    fill-rule="evenodd"
    clip-rule="evenodd"
    d="M11.383 3.076A1 1 0 0 1 12 4v16a1 1 0 0 1-1.707.707L5.586 16H2a1 1 0 0 1-1-1V9a1 1 0 0 1 1-1h3.586l4.707-4.707a1 1 0 0 1 1.09-.217zM10 6.414L6.707 9.707A1 1 0 0 1 6 10H3v4h3a1 1 0 0 1 .707.293L10 17.586V6.414zm5.293 1.879a1 1 0 0 1 1.414 0L19 10.586l2.293-2.293a1 1 0 1 1 1.414 1.414L20.414 12l2.293 2.293a1 1 0 0 1-1.414 1.414L19 13.414l-2.293 2.293a1 1 0 1 1-1.414-1.414L17.586 12l-2.293-2.293a1 1 0 0 1 0-1.414z"
  />
</svg>
